Adwaita++-Light/panel/22/steadyflow-alert-panel.svg

<svg height="22" width="22" xmlns="http://www.w3.org/2000/svg">
  <path d="m12.5 4c-1.5387 0-2.9701219.7888906-3.7949219 2.0878906-.23072-.057-.4673981-.0868906-.7050781-.0878906-1.6569 0-3 1.3431-3 3 .0011.4065.0848637.8085406.2460938 1.181641-1.9218001.557-3.2445938 2.317359-3.2460938 4.318359 0 2.4853 2.0147 4.5 4.5 4.5h6.445312l-3.8144526-4.162109a.50005.50005 0 0 1 .3691406-.800782h2.5v-4.4999996a.50005.50005 0 0 1 .5-.5h5a.50005.50005 0 0 1 .210938.046875c-.226-.163-.463797-.3126063-.716797-.4414063.0024-.035.004259-.0699687.005859-.1054687 0-2.4853-2.0147-4.5-4.5-4.5zm5.402344 5.2011719a.50005.50005 0 0 1 .097656.2988281v4.5h1.957031c.01516-.1663.042969-.3297.042969-.5-.0023-1.6986-.795446-3.269728-2.097656-4.2988281z" fill="#444"/>
  <path d="m13.0003 10.0012v4.5a.50005.50005 0 0 1 -.5.5h-1.8633l4.3633 4.7598 4.3633-4.7598h-1.8633a.50005.50005 0 0 1 -.5-.5v-4.5z" fill="#4285f4"/>
</svg>

<svg xmlns="http://www.w3.org/2000/svg" width="22" height="22" version="1.1">
 <defs>
  <style id="current-color-scheme" type="text/css">
   .ColorScheme-Text { color:#444444; } .ColorScheme-Highlight { color:#4285f4; }
  </style>
 </defs>
 <path style="fill:currentColor" class="ColorScheme-Text" d="M 12.5 4 C 10.9613 4 9.5298781 4.7888906 8.7050781 6.0878906 C 8.4743581 6.0308906 8.23768 6.001 8 6 C 6.3431 6 5 7.3431 5 9 C 5.0011 9.4065 5.0848637 9.8085406 5.2460938 10.181641 C 3.3242937 10.738641 2.0015 12.499 2 14.5 C 2 16.9853 4.0147 19 6.5 19 L 12.945312 19 L 9.1308594 14.837891 A 0.50005 0.50005 0 0 1 9.5 14.037109 L 12 14.037109 L 12 9.5371094 A 0.50005 0.50005 0 0 1 12.5 9.0371094 L 17.5 9.0371094 A 0.50005 0.50005 0 0 1 17.710938 9.0839844 C 17.484938 8.9209844 17.247141 8.7713781 16.994141 8.6425781 C 16.996541 8.6075781 16.9984 8.5726094 17 8.5371094 C 17 6.0518094 14.9853 4.0371094 12.5 4.0371094 L 12.5 4 z M 17.902344 9.2011719 A 0.50005 0.50005 0 0 1 18 9.5 L 18 14 L 19.957031 14 C 19.972191 13.8337 20 13.6703 20 13.5 C 19.9977 11.8014 19.204554 10.230272 17.902344 9.2011719 z"/>
 <path style="fill:currentColor" class="ColorScheme-Highlight" d="m 13.0003,10.0012 0,4.5 a 0.50005,0.50005 0 0 1 -0.5,0.5 l -1.8633,0 4.3633,4.7598 4.3633,-4.7598 -1.8633,0 a 0.50005,0.50005 0 0 1 -0.5,-0.5 l 0,-4.5 -4,0 z"/>
</svg>
